LOGcamera/LUTs/AppleLog2ToRec709.cube
TITLE "BaseLUT - Apple iPhone - Apple Log 2 to Rec709"
# Developed for converting Apple Log / Apple Log 2 to Rec.709. Version 1.1 - 09/27/2025 - Copyright 2025 Gamut, LLC.
LUT_3D_SIZE 33
0.0000000000 0.0000000000 0.0000000000
0.0000000000 0.0000000000 0.0000000000
0.0000000000 0.0000000000 0.0000000000
0.0000000000 0.0000000000 0.0000000000
0.0000000000 0.0000000000 0.0000000000
0.0000000000 0.0000000000 0.0000000000
0.0000000000 0.0000000000 0.0000000000
0.0000000000 0.0000000000 0.0000000000
0.0016752708 0.0000000000 0.0000000000
0.0134493130 0.0013961288 0.0013961288
0.0584318750 0.0068534983 0.0068534302
0.1360803384 0.0163465579 0.0159479205
0.2163561845 0.0266418914 0.0261637209
0.2937690037 0.0363974401 0.0357858123
0.3621300019 0.0449117292 0.0448619120
0.4248746091 0.0532929375 0.0529593125
0.4847701920 0.0619854424 0.0602475000
0.5443312843 0.0711156875 0.0677374688
0.6019613653 0.0814355000 0.0748950000
0.6573734123 0.0939545312 0.0821906562
0.7099547958 0.1099300719 0.0887966727
0.7579850636 0.1309250600 0.0950055625
0.8013555195 0.1586403628 0.1011428750
0.8390520136 0.1938601878 0.1068088652
0.8711399581 0.2361850760 0.1128713083
0.8978858943 0.2840302159 0.1198236833
0.9199580145 0.3331661125 0.1293073095
0.9380320001 0.3831834103 0.1434466313
0.9525501732 0.4360061722 0.1645280054
0.9639975312 0.4909007796 0.1944036608
0.9727524375 0.5472821760 0.2325881317
0.9774880000 0.6029712948 0.2772736474
0.9774880000 0.6578722820 0.3248080179
0.0000000000 0.0000000000 0.0000000000
0.0000000000 0.0000000000 0.0000000000
0.0000000000 0.0000000000 0.0000000000
0.0000000000 0.0000000000 0.0000000000
0.0000000000 0.0000000000 0.0000000000
0.0000000000 0.0000000000 0.0000000000
0.0000000000 0.0000000000 0.0000000000
0.0000000000 0.0000000000 0.0000000000
0.0025832405 0.0000000000 0.0000000000
0.0211384642 0.0019796548 0.0019796548
0.0735972500 0.0089511763 0.0088873099
0.1470239369 0.0179033050 0.0174341974
0.2241922307 0.0274035639 0.0269523872
0.2999761491 0.0370134429 0.0365779194
0.3654736101 0.0456285449 0.0451662447
0.4263844449 0.0539342813 0.0529593125
0.4857533106 0.0619854424 0.0602475000
0.5447711657 0.0713821875 0.0677374688
0.6022486013 0.0819012500 0.0748950000
0.6576293068 0.0946039375 0.0821906562
0.7100587014 0.1105033891 0.0887966727
0.7580996173 0.1315203588 0.0950055625
0.8014792647 0.1593726053 0.1011428750
0.8390520136 0.1944594024 0.1068088652
0.8711160860 0.2366595062 0.1128713083
0.8978561420 0.2844190327 0.1198236833
0.9200592758 0.3334892521 0.1293073095
0.9379866114 0.3833477485 0.1434466313
0.9525772443 0.4362194056 0.1645001165
0.9640211875 0.4910326906 0.1943864037
0.9727778125 0.5473391803 0.2325881317
0.9774880000 0.6030214515 0.2772736474
0.9774880000 0.6578722820 0.3248080179
0.0000000000 0.0000000000 0.0000000000
0.0000000000 0.0000000000 0.0000000000
0.0000000000 0.0000000000 0.0000000000
0.0000000000 0.0000000000 0.0000000000
0.0000000000 0.0000000000 0.0000000000
0.0000000000 0.0000000000 0.0000000000
0.0000000000 0.0000000000 0.0000000000
0.0000000000 0.0000000000 0.0000000000
0.0051664809 0.0000000000 0.0000000000
0.0297670828 0.0033760734 0.0033760734
0.0856589375 0.0104835837 0.0103503490
0.1580123112 0.0189008891 0.0183866234
0.2330967238 0.0289515211 0.0283006814
0.3060187868 0.0377768527 0.0376488181
0.3679440357 0.0459034212 0.0455865860
0.4276009621 0.0539342813 0.0529593125
0.4865559190 0.0625614140 0.0605355000
0.5453925208 0.0718835313 0.0677374688
0.6025548570 0.0823650000 0.0751080539
0.6579393646 0.0951605000 0.0821906562
0.7101929622 0.1111999420 0.0887966727
0.7581759968 0.1322092972 0.0950055625
0.8015253195 0.1599422037 0.1011428750
0.8391352396 0.1950568976 0.1068088652
0.8711320007 0.2370191005 0.1128713083
0.8978484076 0.2848076306 0.1198236833
0.9200657908 0.3337856983 0.1293073095
0.9380409029 0.3835244136 0.1434466313
0.9525755309 0.4363092819 0.1645001165
0.9640220000 0.4911594549 0.1944036608
0.9727786875 0.5473926823 0.2325787422
0.9774880000 0.6031170892 0.2773949509
0.9774880000 0.6579183167 0.3248080179
0.0000000000 0.0000000000 0.0000000000
0.0000000000 0.0000000000 0.0000000000
0.0000000000 0.0000000000 0.0000000000
0.0000000000 0.0000000000 0.0000000000
0.0000000000 0.0000000000 0.0000000000
0.0000000000 0.0000000000 0.0000000000
0.0000000000 0.0000000000 0.0000000000
0.0000000000 0.0000000000 0.0000000000
0.0068191728 0.0000000000 0.0000000000
0.0396630322 0.0046968306 0.0046968306
0.0985039062 0.0120159912 0.0118133881
0.1703077184 0.0206999345 0.0201052783
0.2422347858 0.0297132559 0.0293439351
0.3110028716 0.0385340124 0.0384142783
0.3701577206 0.0463379232 0.0459107905
0.4288672256 0.0545701562 0.0532071875
0.4873302503 0.0630784303 0.0605355000
0.5459016051 0.0721515000 0.0679776563
0.6029463157 0.0828263125 0.0751080539
0.6582099941 0.0957522812 0.0821906562
0.7103548045 0.1120176468 0.0887966727
0.7582426610 0.1327981972 0.0950055625
0.8015368177 0.1606766036 0.1011428750
0.8391474053 0.1956521105 0.1068088652
0.8712268984 0.2376054675 0.1128713083
0.8979216970 0.2851961347 0.1198236833
0.9200576006 0.3340063254 0.1293073095
0.9380075408 0.3837012035 0.1434466313
0.9526043777 0.4365267044 0.1645280054
0.9640544375 0.4912360937 0.1944036608
0.9727524375 0.5474585984 0.2325787422
0.9774880000 0.6031720154 0.2774033167
0.9774880000 0.6580026614 0.3248080179
0.0000000000 0.0000000000 0.0000000000
0.0000000000 0.0000000000 0.0000000000
0.0000000000 0.0000000000 0.0000000000
0.0000000000 0.0000000000 0.0000000000
0.0000000000 0.0000000000 0.0000000000
0.0000000000 0.0000000000 0.0000000000
0.0000000000 0.0000000000 0.0000000000
0.0017450738 0.0000000000 0.0000000000
0.0136088789 0.0012185661 0.0012185661
0.0540129375 0.0062962147 0.0062962147
0.1146517339 0.0137917947 0.0135088053
0.1826166945 0.0222444229 0.0216104054
0.2503634208 0.0307692789 0.0304373838
0.3150230035 0.0392841096 0.0384890583
0.3719275991 0.0470398639 0.0459107905
0.4300001027 0.0547932500 0.0536027813
0.4879655781 0.0633525000 0.0607608750
0.5463863072 0.0726649063 0.0679605000
0.6033534239 0.0836840625 0.0751711444
0.6584206536 0.0963529063 0.0821906562
0.7105706252 0.1124813830 0.0887966727
0.7583981066 0.1335483448 0.0952244375
0.8016359505 0.1613759233 0.1011428750
0.8391991876 0.1964188314 0.1068088652
0.8712120716 0.2380771857 0.1128713083
0.8979151477 0.2855830439 0.1198236833
0.9200899893 0.3343087870 0.1293073095
0.9380147880 0.3838119586 0.1434466313
0.9526000164 0.4366116414 0.1645280054
0.9640201875 0.4912950154 0.1944036608
0.9727751875 0.5475653523 0.2325881317
0.9774880000 0.6031784058 0.2774071277
0.9774880000 0.6580113868 0.3248080179
0.0000000000 0.0000000000 0.0000000000
0.0000000000 0.0000000000 0.0000000000
0.0000000000 0.0000000000 0.0000000000
0.0000000000 0.0000000000 0.0000000000
0.0000000000 0.0000000000 0.0000000000
0.0000000000 0.0000000000 0.0000000000
0.0000000000 0.0000000000 0.0000000000
0.0078377938 0.0012693397 0.0000000000
0.0336252668 0.0040109847 0.0034013153
0.0750958036 0.0093160543 0.0092356708
0.1317592202 0.0161029151 0.0157153068
0.1928764004 0.0237921932 0.0232130290
0.2560497910 0.0321450748 0.0312262759
0.3173531481 0.0400292068 0.0392723053
0.3734952641 0.0472418023 0.0463037409
0.4309347451 0.0552005625 0.0536027813
0.4886760505 0.0637025000 0.0608360000
0.5468961740 0.0731753125 0.0682761563
0.6035866229 0.0841245000 0.0753919612
0.6585847358 0.0971454063 0.0821906562
0.7107608280 0.1131665517 0.0887966727
0.7584481829 0.1342652815 0.0952759375
0.8016685805 0.1620954407 0.1011428750
0.8391865227 0.1970033216 0.1068088652
0.8712655351 0.2385727813 0.1128713083
0.8979100643 0.2859700156 0.1198236833
0.9200790069 0.3345939230 0.1293073095
0.9380164436 0.3840554699 0.1434466313
0.9526206702 0.4368248748 0.1645280054
0.9640116875 0.4914383115 0.1944036608
0.9727786875 0.5476257760 0.2325881317
0.9774880000 0.6032286561 0.2774071277
0.9774880000 0.6580113868 0.3247124163
0.0000000000 0.0000000000 0.0000000000
0.0000000000 0.0000000000 0.0000000000
0.0000000000 0.0000000000 0.0000000000
0.0000000000 0.0000000000 0.0000000000
0.0000000000 0.0000000000 0.0000000000
0.0000000000 0.0000000000 0.0000000000
0.0036305208 0.0052804532 0.0000000000
0.0208880983 0.0115537857 0.0020812020
0.0487486925 0.0148627370 0.0051284866
0.0912068437 0.0166870346 0.0108147516
0.1425930509 0.0199708443 0.0166677917
0.1992064569 0.0259789485 0.0240018888
0.2597401042 0.0330787841 0.0313535373
0.3196996357 0.0407690539 0.0392723053
0.3750157492 0.0482916822 0.0466244071
0.4320409512 0.0560056875 0.0536027813
0.4896259700 0.0647200000 0.0608360000
0.5473600233 0.0740908750 0.0682761563
0.6040076681 0.0850145000 0.0753919612
0.6589149605 0.0978549062 0.0821906562
0.7109284047 0.1141928740 0.0889877064
0.7586907855 0.1353759106 0.0952759375
0.8017336539 0.1628827421 0.1011428750
0.8391939782 0.1977737175 0.1068088652
0.8712621160 0.2391391362 0.1128713083
0.8979783014 0.2864611575 0.1198236833
0.9200361942 0.3349118304 0.1293073095
0.9380298447 0.3842447116 0.1434466313
0.9525825713 0.4369189401 0.1645001165
0.9640465625 0.4915594924 0.1944036608
0.9727524375 0.5477372039 0.2325881317
0.9774880000 0.6032789064 0.2772698673
0.9774880000 0.6580487899 0.3246947123
0.0000000000 0.0000000000 0.0000000000
0.0000000000 0.0000000000 0.0000000000
0.0000000000 0.0000000000 0.0000000000
0.0011636285 0.0012693397 0.0012693397
0.0000000000 0.0027162743 0.0000000000
0.0000000000 0.0094378448 0.0000000000
0.0037933550 0.0212312515 0.0021066049
0.0246857902 0.0314328450 0.0035283619
0.0544314375 0.0370537244 0.0067025000
0.0952587812 0.0389343267 0.0111630536
0.1454497419 0.0366157536 0.0173176255
0.2021404485 0.0346511044 0.0241546026
0.2617803537 0.0370627557 0.0321669785
0.3216040362 0.0431438148 0.0395959412
0.3766267884 0.0497848376 0.0466244071
0.4334890029 0.0575370000 0.0537665313
0.4905846047 0.0658142500 0.0608360000
0.5481445757 0.0754608688 0.0682761563
0.6046119358 0.0862419375 0.0753919612
0.6593420862 0.0991723438 0.0821906562
0.7111436022 0.1154746572 0.0889740612
0.7588384214 0.1367496985 0.0952759375
0.8018946593 0.1641958700 0.1011428750
0.8393731885 0.1989569707 0.1068088652
0.8713170093 0.2401719725 0.1128713083
0.8979485490 0.2872027021 0.1198236833
0.9200844050 0.3354449135 0.1293073095
0.9380190988 0.3845904584 0.1434466313
0.9526079913 0.4372015112 0.1645280054
0.9640038750 0.4918046616 0.1944036608
0.9727988125 0.5478915848 0.2325787422
0.9774880000 0.6033711613 0.2772698673
0.9774880000 0.6580933860 0.3246947123
0.0000000000 0.0048745220 0.0000000000
0.0000000000 0.0048745220 0.0000000000
0.0000000000 0.0048745220 0.0000000000
0.0000000000 0.0082695750 0.0000000000
0.0012101146 0.0149109843 0.0013200489
0.0024900911 0.0268385405 0.0027163065
0.0053061458 0.0463569233 0.0057373833
0.0200224963 0.0578827813 0.0067279029
0.0522657500 0.0632615000 0.0074464797
0.0936300312 0.0663815312 0.0111630536
0.1438573508 0.0647449375 0.0168070418
0.2009275342 0.0588409062 0.0241546026
0.2620751683 0.0515865000 0.0321669785
0.3222833451 0.0508930937 0.0395959412
0.3780390426 0.0546944375 0.0466244071
0.4348102343 0.0609257812 0.0539098125
0.4918679568 0.0687765000 0.0611215000
0.5492596840 0.0777584062 0.0682761563
0.6053833561 0.0884853750 0.0753919612
0.6598418250 0.1015363125 0.0824691250
0.7115017245 0.1176418594 0.0890695781
0.7590643736 0.1388512687 0.0952759375
0.8019968066 0.1662067230 0.1011428750
0.8393729078 0.2006428165 0.1068088652
0.8713247180 0.2415348526 0.1128713083
0.8979582170 0.2882612921 0.1198236833
0.9200583451 0.3362267583 0.1293073095
0.9380086029 0.3851753163 0.1434466313
0.9526069944 0.4376348868 0.1645001165
0.9640001562 0.4920521078 0.1944036608
0.9727331875 0.5480636397 0.2325787422
0.9774880000 0.6035234896 0.2774033167
0.9774880000 0.6581732587 0.3246947123
0.0018147882 0.0187058947 0.0019796548
0.0018147882 0.0187058947 0.0019796548
0.0018147882 0.0187058947 0.0019796548
0.0024901207 0.0272811255 0.0027163387
0.0039562778 0.0402646141 0.0043156906
0.0059580434 0.0556236562 0.0064993091
0.0083386482 0.0749726462 0.0088636303
0.0120118362 0.0916785937 0.0110005952
0.0399115228 0.0974458125 0.0117207609
0.0854163125 0.1001556875 0.0119066633
0.1377043342 0.1005632812 0.0162726018
0.1962007038 0.0957599063 0.0235691998
0.2590334598 0.0860618125 0.0313535373
0.3212001612 0.0742516250 0.0394963609
0.3779385178 0.0693122500 0.0466244071
0.4358843601 0.0702588125 0.0542413125
0.4931574907 0.0750583981 0.0614195000
0.5504275252 0.0826186875 0.0685667500
0.6064122088 0.0927608750 0.0755995408
0.6606117563 0.1053341723 0.0824691250
0.7120949589 0.1211564732 0.0890695781
0.7594084721 0.1421542637 0.0952759375
0.8022598039 0.1691693038 0.1012613125
0.8395202690 0.2030928313 0.1068088652
0.8713814142 0.2435817128 0.1128713083
0.8980034381 0.2897208953 0.1198236833
0.9200825436 0.3373144170 0.1293073095
0.9379991066 0.3859417388 0.1434466313
0.9526312619 0.4382270700 0.1645280054
0.9640182812 0.4924833997 0.1944036608
0.9727524375 0.5483961451 0.2325787422
0.9774880000 0.6037266771 0.2773112933
0.9774880000 0.6583094551 0.3246947123
0.0052594531 0.0489965472 0.0057372545
0.0052594531 0.0489965472 0.0057372545
0.0052594531 0.0489965472 0.0057372545
0.0066793307 0.0612385625 0.0072716952
0.0088181221 0.0759188025 0.0092820580
0.0107607221 0.0914080000 0.0109773279
0.0132893421 0.1086128609 0.0131840062
0.0158177258 0.1248932593 0.0153904783
0.0212468100 0.1388400742 0.0168070418
0.0651756250 0.1411165861 0.0175500036
0.1243990670 0.1418575789 0.0175500036
0.1861425199 0.1395822865 0.0225260106
0.2513831869 0.1315436126 0.0307935869
0.3169837921 0.1183565774 0.0392723053
0.3759386526 0.1019396250 0.0466244071
0.4355058068 0.0931501563 0.0542413125
0.4939756364 0.0907057500 0.0614195000
0.5516750089 0.0933214062 0.0688123750
0.6076237515 0.1008180000 0.0758878074
0.6616078936 0.1119928255 0.0826527500
0.7128762458 0.1271705766 0.0892247982
0.7598906472 0.1472295815 0.0954134375
0.8025618328 0.1736544613 0.1012613125
0.8396939268 0.2069195033 0.1068088652
0.8714685721 0.2466134867 0.1128713083
0.8980529631 0.2918654790 0.1198236833
0.9201197721 0.3388497840 0.1293073095
0.9380698917 0.3870471674 0.1434466313
0.9525857488 0.4390568392 0.1645001165
0.9640238125 0.4930560227 0.1944036608
0.9727261875 0.5487827644 0.2325787422
0.9774880000 0.6039998196 0.2773116961
0.9774880000 0.6585243357 0.3246947123
0.0113730326 0.0931730937 0.0115116796
0.0113730326 0.0931730937 0.0115116796
0.0113730326 0.0934250937 0.0115116796
0.0129167517 0.1050453309 0.0128588536
0.0146731240 0.1195687785 0.0143916062
0.0166423183 0.1328977986 0.0161100844
0.0188781983 0.1476008753 0.0180612941
0.0206580757 0.1618792072 0.0196171667
0.0228886617 0.1766401097 0.0218648316
0.0334118215 0.1894460017 0.0236201044
0.0960021563 0.1895527330 0.0236201044
0.1676661201 0.1879459487 0.0236201044
0.2378812125 0.1833845459 0.0291911246
0.3077145332 0.1723158831 0.0384392050
0.3707656190 0.1554847864 0.0459107905
0.4325300345 0.1355734904 0.0536027813
0.4929638707 0.1235210633 0.0614195000
0.5522148501 0.1170397707 0.0688123750
0.6086165800 0.1176747368 0.0758878074
0.6627081121 0.1245412989 0.0827692500
0.7137742161 0.1372672451 0.0892247982
0.7605855604 0.1558139915 0.0954134375
0.8029692098 0.1807393044 0.1012613125
0.8399322189 0.2126214354 0.1068088652
0.8715992468 0.2510364395 0.1128713083
0.8981163351 0.2951531513 0.1198236833
0.9201791514 0.3410408920 0.1293073095
0.9380563032 0.3886824025 0.1434466313
0.9526211375 0.4402319398 0.1645280054
0.9639931562 0.4939597516 0.1944036608
0.9727690625 0.5494111771 0.2325787422
0.9774880000 0.6043919666 0.2773196591
0.9774880000 0.6588274078 0.3247690691
0.0186119851 0.1443011010 0.0178289750
0.0186119851 0.1443011010 0.0178289750
0.0186119851 0.1447185486 0.0178289750
0.0197034320 0.1551829109 0.0187814599
0.0218337441 0.1689315907 0.0207090116
0.0233437259 0.1796698968 0.0222715844
0.0245181765 0.1913918313 0.0235181662
0.0266514137 0.2034047307 0.0257824204
0.0281613044 0.2160428875 0.0273850440
0.0298148292 0.2314194221 0.0290637663
0.0507101250 0.2426099568 0.0313535373
0.1320770628 0.2409562473 0.0305390639
0.2152349947 0.2376208351 0.0305390639
0.2920922391 0.2309668743 0.0369019660
0.3607611395 0.2175390697 0.0451428345
0.4264664903 0.1972204417 0.0532071875
0.4893897206 0.1747037379 0.0611215000
0.5506529139 0.1592809343 0.0688123750
0.6087908121 0.1501599382 0.0758878074
0.6635474411 0.1487079399 0.0829294375
0.7146842163 0.1552824416 0.0894903922
0.7612626361 0.1697539723 0.0955290313
0.8034511074 0.1917037093 0.1013828750
0.8401686082 0.2212007204 0.1071743424
0.8718159605 0.2576319460 0.1128713083
0.8982367480 0.3000129809 0.1198236833
0.9202122847 0.3443293750 0.1293073095
0.9381156552 0.3911433583 0.1434466313
0.9526711676 0.4419590061 0.1645001165
0.9640360625 0.4951787137 0.1943864037
0.9727944375 0.5502533458 0.2325787422
0.9774880000 0.6050418111 0.2774033167
0.9774880000 0.6592328070 0.3246522227
0.0256444856 0.2008372784 0.0247136498
0.0256444856 0.2008372784 0.0247136498
0.0256444856 0.2010183732 0.0247136498
0.0271063564 0.2094749283 0.0262653043
0.0286163990 0.2217992755 0.0278680892
0.0301267152 0.2308533166 0.0294711644
0.0311808426 0.2397107902 0.0305900330
0.0326905813 0.2495868725 0.0321924953
0.0342005631 0.2600781938 0.0337952156
0.0357180952 0.2728628895 0.0353997271
0.0380731001 0.2886150519 0.0377733883
0.0727614062 0.2981416450 0.0392224519
0.1729392017 0.2950120863 0.0384890583
0.2663780361 0.2903977048 0.0384890583
0.3450919237 0.2822688599 0.0444615689
0.4152223821 0.2665278202 0.0523103125
0.4826598729 0.2432935987 0.0605355000
0.5467791769 0.2181311489 0.0682761563
0.6069516642 0.2006478953 0.0758878074
0.6633911946 0.1893549956 0.0831122500
0.7152671039 0.1861467730 0.0896542200
0.7619905691 0.1929116424 0.0956831563
0.8039791841 0.2092416114 0.1015287500
0.8405754735 0.2344135376 0.1071743424
0.8719769105 0.2675214908 0.1128713083
0.8983764970 0.3070601459 0.1198236833
0.9202506300 0.3489638326 0.1293073095
0.9381196537 0.3947120779 0.1434466313
0.9526524764 0.4444395132 0.1645280054
0.9640260312 0.4970630426 0.1944036608
0.9728049375 0.5515441970 0.2325787422
0.9774880000 0.6059720369 0.2773451592
0.9774880000 0.6598787936 0.3246486819
0.0339610108 0.2606201447 0.0335409508
0.0339610108 0.2606201447 0.0335409508
0.0339610108 0.2608140245 0.0335409508
0.0350878483 0.2674222123 0.0347368639
0.0361716118 0.2771738368 0.0358865608
0.0377073199 0.2855458916 0.0374495628
0.0384566252 0.2922153836 0.0382153073
0.0393701483 0.2994867730 0.0391488725
0.0406950196 0.3078138871 0.0405028104
0.0421715264 0.3178927728 0.0420117108
0.0439419064 0.3297722389 0.0438209315
0.0475786558 0.3441568018 0.0463724551
0.0993188125 0.3518315257 0.0476717060
0.2182018663 0.3482577773 0.0469904720
0.3189689257 0.3427813449 0.0466927106
0.3978971727 0.3336592496 0.0520163125
0.4706959848 0.3172031328 0.0599450000
0.5395941241 0.2925009475 0.0682761563
0.6030040392 0.2657124578 0.0758878074
0.6614101584 0.2464997338 0.0831122500
0.7147405635 0.2334272092 0.0896542200
0.7622975867 0.2297042106 0.0958203125
0.8045129789 0.2367942917 0.1017441875
0.8409796561 0.2547810006 0.1071743424
0.8723117412 0.2826150204 0.1130658356
0.8985498655 0.3175339795 0.1200815195
0.9204001022 0.3561407275 0.1293627442
0.9382043085 0.3999508108 0.1434466313
0.9526803886 0.4482176899 0.1646343713
0.9640701875 0.4998089551 0.1944036608
0.9728189375 0.5534215966 0.2325881317
0.9774880000 0.6072994956 0.2772698673
0.9774880000 0.6607745309 0.3247442835
0.0426529887 0.3201486714 0.0425037359
0.0426529887 0.3201486714 0.0425037359
0.0426529887 0.3204686779 0.0425037359
0.0433141259 0.3249936025 0.0431793780
0.0443641364 0.3319731844 0.0446305268
0.0454225248 0.3387068244 0.0454510847
0.0462401203 0.3439649008 0.0461695666
0.0469357890 0.3487105084 0.0468804978
0.0481326125 0.3544742605 0.0481035786
0.0494683384 0.3622737700 0.0494656797
0.0508877813 0.3718360561 0.0507816875
0.0531466250 0.3839048630 0.0531466250
0.0588597187 0.3982537084 0.0556443750
0.1310891102 0.4053703460 0.0567661875
0.2666789485 0.4007676746 0.0561272500
0.3699035463 0.3943632044 0.0555240937
0.4524090439 0.3843802141 0.0608584062
0.5273211392 0.3672344625 0.0685559688
0.5956525919 0.3421702080 0.0760998469
0.6573391973 0.3158040310 0.0831703750
0.7128131981 0.2960135888 0.0900901250
0.7617985112 0.2824929932 0.0962251875
0.8046531322 0.2781677542 0.1020317500
0.8413526446 0.2857649587 0.1075383889
0.8726347602 0.3048288272 0.1133035357
0.8987732891 0.3324639404 0.1201513216
0.9205365445 0.3667338958 0.1296126998
0.9382685961 0.4076417930 0.1434466313
0.9527156838 0.4537644217 0.1647407372
0.9640570625 0.5038353470 0.1944036608
0.9728472812 0.5561315479 0.2325881317
0.9774880000 0.6092518372 0.2772698673
0.9774880000 0.6621239225 0.3247478243
0.0515125000 0.3756968485 0.0515125000
0.0515125000 0.3756968485 0.0515125000
0.0518095625 0.3759616745 0.0518095625
0.0524420000 0.3794886101 0.0524420000
0.0533807500 0.3845999454 0.0533807500
0.0543291562 0.3898081368 0.0543291562
0.0549413125 0.3946820172 0.0549413125
0.0558511250 0.3986841620 0.0558511250
0.0566120000 0.4029403059 0.0566120000
0.0576603750 0.4090396643 0.0576603750
0.0594486250 0.4169681544 0.0589656875
0.0615740312 0.4269264161 0.0609909375
0.0638303750 0.4394112800 0.0636102500
0.0732906875 0.4538737083 0.0666127187
0.1678738803 0.4601776581 0.0680509375
0.3169863457 0.4552458037 0.0667202500
0.4228120923 0.4480632306 0.0661890000
0.5082412018 0.4373376230 0.0706765625
0.5832853763 0.4188248267 0.0775892500
0.6502292311 0.3925117006 0.0842918750
0.7089543846 0.3655186172 0.0907271250
0.7599375370 0.3460598923 0.0968272813
0.8041280699 0.3325486572 0.1024866250
0.8414501575 0.3282933289 0.1080817836
0.8729303636 0.3357014137 0.1137362608
0.8990595545 0.3543114137 0.1205640968
0.9207251065 0.3825175380 0.1297642088
0.9384065428 0.4191330007 0.1437231473
0.9528068658 0.4620323529 0.1647407372
0.9641305625 0.5096191705 0.1944036608
0.9728083750 0.5602865057 0.2325881317
0.9774880000 0.6121261048 0.2772698673
0.9774880000 0.6637757295 0.3246380595
0.0623643124 0.4322848561 0.0623643124
0.0623643124 0.4322848561 0.0623643124
0.0626239643 0.4325859339 0.0623643124
0.0631406989 0.4353285518 0.0628832782
0.0640017187 0.4392375608 0.0637644687
0.0647990312 0.4432214722 0.0645459062
0.0656430312 0.4471602141 0.0654467500
0.0664258750 0.4510087354 0.0661774375
0.0673424063 0.4545433537 0.0669557812
0.0682660000 0.4588818578 0.0680231875
0.0698480000 0.4651638132 0.0691978438
0.0717359062 0.4731745165 0.0709820625
0.0740583437 0.4833153819 0.0733236875
0.0775529375 0.4959908700 0.0765003437
0.0926879062 0.5104400805 0.0800479375
0.2089258346 0.5162100543 0.0815032812
0.3670813025 0.5107738468 0.0803531250
0.4769848399 0.5031926687 0.0792203437
0.5636926117 0.4915914642 0.0822427812
0.6380013313 0.4722893808 0.0877809687
0.7021432161 0.4449015514 0.0932826875
0.7563130233 0.4170618446 0.0984308125
0.8023905412 0.3967719736 0.1037896983
0.8409653068 0.3831157215 0.1090267055
0.8729967889 0.3788570659 0.1145731881
0.8993090505 0.3866223098 0.1212841359
0.9209683944 0.4060868614 0.1303638462
0.9385505183 0.4361466918 0.1441270864
0.9529324084 0.4741444944 0.1650635868
0.9641528125 0.5182654244 0.1946048683
0.9728683438 0.5663096846 0.2325787422
0.9774880000 0.6162567218 0.2773447564
0.9774880000 0.6662647296 0.3247017939
0.0757887661 0.4893350342 0.0750867328
0.0757887661 0.4894934585 0.0750867328
0.0757887661 0.4897550035 0.0753756898
0.0765250937 0.4917319218 0.0758222937
0.0772032500 0.4947548130 0.0765091875
0.0781590938 0.4977944148 0.0774712500
0.0789191250 0.5008570550 0.0780352500
0.0797647188 0.5039148807 0.0788889062
0.0806958750 0.5071794814 0.0798278125
0.0819464687 0.5109102795 0.0807574062
0.0831826875 0.5153558177 0.0818730625
0.0852767813 0.5217748183 0.0835381562
0.0877381875 0.5299127030 0.0855953125
0.0911455625 0.5401059336 0.0886407490
0.0957332500 0.5528103634 0.0922358125
0.1192602401 0.5670404893 0.0969534063
