LOGcamera/LUTs/AppleLogToRec709.cube
TITLE "BaseLUT - Apple iPhone - Apple Log to Rec709"
# Developed for converting Apple Log / BT.2020 to Rec.709. Version 1.2 - 09/27/2025 - Copyright 2025 Gamut, LLC.
LUT_3D_SIZE 33
0.0000000000 0.0000000000 0.0000000000
0.0000000000 0.0000000000 0.0000000000
0.0000000000 0.0000000000 0.0000000000
0.0000000000 0.0000000000 0.0000000000
0.0000000000 0.0000000000 0.0000000000
0.0000000000 0.0000000000 0.0000000000
0.0000000000 0.0000000000 0.0000000000
0.0000000000 0.0000000000 0.0000000000
0.0024202292 0.0000000000 0.0000000000
0.0161037661 0.0013961288 0.0013961288
0.0640625000 0.0075899428 0.0075899428
0.1413121777 0.0169709937 0.0169709937
0.2212582221 0.0269847351 0.0269847351
0.2964424955 0.0366715225 0.0366715225
0.3631306351 0.0452206644 0.0448953036
0.4253468042 0.0532929375 0.0529593125
0.4855569749 0.0617035000 0.0605355000
0.5452447885 0.0703551562 0.0677374688
0.6031677112 0.0802983750 0.0753901597
0.6589443941 0.0917954688 0.0826527500
0.7110796967 0.1057850000 0.0896603750
0.7593764346 0.1244130803 0.0967638438
0.8026452335 0.1489330031 0.1046520193
0.8406223128 0.1810205437 0.1135818125
0.8729791262 0.2205429536 0.1253702439
0.9001311732 0.2667424565 0.1423959103
0.9224154658 0.3163140901 0.1679518301
0.9403611611 0.3652021438 0.2041087468
0.9542843232 0.4165896282 0.2486822064
0.9650541516 0.4702226687 0.2984417346
0.9732944041 0.5252551929 0.3478417059
0.9774880000 0.5806211021 0.3976850308
0.9774880000 0.6354189906 0.4496308775
0.0000000000 0.0000000000 0.0000000000
0.0000000000 0.0000000000 0.0000000000
0.0000000000 0.0000000000 0.0000000000
0.0000000000 0.0000000000 0.0000000000
0.0000000000 0.0000000000 0.0000000000
0.0000000000 0.0000000000 0.0000000000
0.0000000000 0.0000000000 0.0000000000
0.0000000000 0.0000000000 0.0000000000
0.0025832405 0.0000000000 0.0000000000
0.0226668973 0.0019542841 0.0019542841
0.0778438437 0.0091678139 0.0091678139
0.1521609235 0.0184795347 0.0184795347
0.2273577100 0.0280528116 0.0280528116
0.3007311866 0.0369684683 0.0369684683
0.3654643761 0.0456147103 0.0452206644
0.4263785877 0.0536027813 0.0529593125
0.4862636575 0.0619857855 0.0605355000
0.5455896052 0.0708617500 0.0677374688
0.6032965072 0.0805549687 0.0753901597
0.6592447830 0.0919604063 0.0826527500
0.7112099019 0.1061562500 0.0896603750
0.7595266141 0.1247226865 0.0968989375
0.8027203165 0.1492780562 0.1046520193
0.8406750391 0.1814484362 0.1135818125
0.8728940414 0.2208883524 0.1252947982
0.9001226863 0.2668821215 0.1423959103
0.9223863311 0.3165444371 0.1677649249
0.9403376535 0.3653937448 0.2041087468
0.9542714265 0.4167526663 0.2486870493
0.9650034245 0.4702288397 0.2983323688
0.9732944041 0.5252551929 0.3477475157
0.9774880000 0.5806745302 0.3975999981
0.9774880000 0.6354189906 0.4496308775
0.0000000000 0.0000000000 0.0000000000
0.0000000000 0.0000000000 0.0000000000
0.0000000000 0.0000000000 0.0000000000
0.0000000000 0.0000000000 0.0000000000
0.0000000000 0.0000000000 0.0000000000
0.0000000000 0.0000000000 0.0000000000
0.0000000000 0.0000000000 0.0000000000
0.0000000000 0.0000000000 0.0000000000
0.0051664809 0.0000000000 0.0000000000
0.0313212586 0.0033760734 0.0033760734
0.0877196250 0.0104843611 0.0104843611
0.1601007809 0.0194847634 0.0194847634
0.2334761969 0.0288235473 0.0288235473
0.3051627840 0.0377346375 0.0377346375
0.3674978814 0.0458905802 0.0456147103
0.4272083929 0.0536027813 0.0529593125
0.4868136130 0.0619857855 0.0605355000
0.5460215046 0.0708785000 0.0679845000
0.6036820302 0.0807695625 0.0753901597
0.6593319856 0.0923808438 0.0826527500
0.7113492673 0.1065255000 0.0896603750
0.7595356931 0.1250316968 0.0968989375
0.8027260921 0.1497932896 0.1046520193
0.8406194010 0.1818753290 0.1135818125
0.8730269106 0.2213568005 0.1252947982
0.9000866791 0.2671951951 0.1421929342
0.9224191971 0.3167723267 0.1679518301
0.9403855729 0.3655646013 0.2041087468
0.9542732333 0.4168474589 0.2486918922
0.9650786092 0.4703598663 0.2983284629
0.9732944041 0.5253130292 0.3477442678
0.9774880000 0.5807252321 0.3975999981
0.9774880000 0.6354639380 0.4496308775
0.0000000000 0.0000000000 0.0000000000
0.0000000000 0.0000000000 0.0000000000
0.0000000000 0.0000000000 0.0000000000
0.0000000000 0.0000000000 0.0000000000
0.0000000000 0.0000000000 0.0000000000
0.0000000000 0.0000000000 0.0000000000
0.0000000000 0.0000000000 0.0000000000
0.0000000000 0.0000000000 0.0000000000
0.0067027361 0.0000000000 0.0000000000
0.0379586407 0.0041125641 0.0041125641
0.0973343438 0.0114181042 0.0114181042
0.1679857555 0.0202265637 0.0202265637
0.2396891149 0.0295939993 0.0295939993
0.3087708379 0.0382470792 0.0377840657
0.3689498445 0.0463266527 0.0458675910
0.4282291837 0.0539342813 0.0529593125
0.4873519080 0.0622825729 0.0605355000
0.5463216030 0.0713488750 0.0682761563
0.6038059607 0.0812377500 0.0753901597
0.6595172833 0.0927992813 0.0826527500
0.7114682560 0.1068943750 0.0896603750
0.7595892593 0.1254736015 0.0968989375
0.8028308295 0.1503151551 0.1046520193
0.8407018720 0.1823569189 0.1135818125
0.8729524964 0.2217518874 0.1252947982
0.9001188172 0.2675780937 0.1423122438
0.9223752618 0.3169967699 0.1677574487
0.9403828604 0.3656642831 0.2039638601
0.9542679375 0.4169859536 0.2486967351
0.9650287881 0.4704409631 0.2983284629
0.9732944041 0.5254287642 0.3478379583
0.9774880000 0.5807302145 0.3976025229
0.9774880000 0.6354669345 0.4496308775
0.0000000000 0.0000000000 0.0000000000
0.0000000000 0.0000000000 0.0000000000
0.0000000000 0.0000000000 0.0000000000
0.0000000000 0.0000000000 0.0000000000
0.0000000000 0.0000000000 0.0000000000
0.0000000000 0.0000000000 0.0000000000
0.0000000000 0.0000000000 0.0000000000
0.0000000000 0.0000000000 0.0000000000
0.0093213004 0.0000000000 0.0000000000
0.0457291601 0.0054834831 0.0054834831
0.1070608750 0.0127822780 0.0127822780
0.1760591522 0.0212412164 0.0212412164
0.2449957924 0.0303640101 0.0298673916
0.3117853704 0.0385687705 0.0385687705
0.3701833425 0.0463266527 0.0459365585
0.4288646089 0.0542413125 0.0529593125
0.4878562245 0.0625648632 0.0605355000
0.5467870490 0.0713988437 0.0682761563
0.6041645980 0.0814468750 0.0753901597
0.6596602943 0.0931623438 0.0826527500
0.7115824465 0.1075808750 0.0896603750
0.7596747272 0.1260660594 0.0968989375
0.8027996846 0.1508353939 0.1046520193
0.8407311783 0.1827818750 0.1135818125
0.8729873392 0.2222065392 0.1250956366
0.9001311732 0.2678544127 0.1421752841
0.9224283386 0.3172211900 0.1677574487
0.9403656818 0.3658551341 0.2039457492
0.9543058800 0.4170131266 0.2486822064
0.9650104214 0.4705683119 0.2983284629
0.9732944041 0.5254907228 0.3478417059
0.9774880000 0.5807836426 0.3976025229
0.9774880000 0.6354669345 0.4496308775
0.0000000000 0.0000000000 0.0000000000
0.0000000000 0.0000000000 0.0000000000
0.0000000000 0.0000000000 0.0000000000
0.0000000000 0.0000000000 0.0000000000
0.0000000000 0.0000000000 0.0000000000
0.0000000000 0.0000000000 0.0000000000
0.0000000000 0.0000000000 0.0000000000
0.0017450738 0.0000000000 0.0000000000
0.0134069791 0.0012185661 0.0012185661
0.0558973437 0.0062708440 0.0062708440
0.1173165625 0.0143144048 0.0143144048
0.1826649215 0.0220148311 0.0220148311
0.2490848983 0.0306372764 0.0306372764
0.3135510552 0.0392225970 0.0385687705
0.3712169964 0.0466449882 0.0459365585
0.4295945148 0.0545701562 0.0536027813
0.4884897783 0.0627644104 0.0608360000
0.5471671957 0.0718338437 0.0682761563
0.6043050651 0.0817043750 0.0753901597
0.6598609604 0.0935645938 0.0826527500
0.7118088958 0.1079340625 0.0896603750
0.7598134170 0.1265846835 0.0968989375
0.8029110981 0.1510909147 0.1046520193
0.8406712819 0.1832051131 0.1135818125
0.8730191954 0.2226115431 0.1250558043
0.9000893625 0.2681584680 0.1421752841
0.9223918036 0.3174287588 0.1677574487
0.9403810522 0.3659486767 0.2039457492
0.9543111758 0.4171649262 0.2486822064
0.9650287881 0.4706414611 0.2983178701
0.9732944041 0.5255020902 0.3477605075
0.9774880000 0.5808756768 0.3976025229
0.9774880000 0.6355082299 0.4496308775
0.0000000000 0.0000000000 0.0000000000
0.0000000000 0.0000000000 0.0000000000
0.0000000000 0.0000000000 0.0000000000
0.0000000000 0.0000000000 0.0000000000
0.0000000000 0.0000000000 0.0000000000
0.0000000000 0.0000000000 0.0000000000
0.0012101736 0.0013201133 0.0000000000
0.0115211842 0.0047222335 0.0012947104
0.0348028051 0.0061947641 0.0041126284
0.0726494375 0.0093833632 0.0086170570
0.1251401577 0.0151762981 0.0151762981
0.1881644860 0.0229340797 0.0229340797
0.2522005667 0.0314078545 0.0307614310
0.3154117184 0.0393463244 0.0385687705
0.3722827793 0.0470311306 0.0459365585
0.4304336933 0.0547526875 0.0536027813
0.4890149396 0.0631336044 0.0608360000
0.5475519297 0.0723326562 0.0682761563
0.6046581902 0.0821690000 0.0753901597
0.6600880127 0.0940444063 0.0826527500
0.7118398036 0.1086496250 0.0898182500
0.7598844212 0.1272442316 0.0968989375
0.8029510306 0.1518194992 0.1046520193
0.8408309011 0.1838419850 0.1135818125
0.8730191954 0.2230933808 0.1250558043
0.9001686780 0.2685460683 0.1421180928
0.9223912128 0.3177291667 0.1677574487
0.9403810522 0.3662028497 0.2039186763
0.9543592737 0.4173279956 0.2486822064
0.9650340357 0.4707190672 0.2983178701
0.9732944041 0.5255986505 0.3477442678
0.9774880000 0.5809350587 0.3976710976
0.9774880000 0.6355158772 0.4496308775
0.0000000000 0.0000000000 0.0000000000
0.0000000000 0.0000000000 0.0000000000
0.0000000000 0.0000000000 0.0000000000
0.0000000000 0.0000000000 0.0000000000
0.0000000000 0.0000000000 0.0000000000
0.0000000000 0.0000000000 0.0000000000
0.0012334314 0.0084975806 0.0000000000
0.0195871367 0.0199632760 0.0020812020
0.0473806864 0.0248229318 0.0051031159
0.0842840000 0.0238539899 0.0102930957
0.1308222519 0.0212161421 0.0155591932
0.1891003953 0.0245496656 0.0229340797
0.2539195002 0.0323021145 0.0312586798
0.3167751408 0.0401187035 0.0393463244
0.3736066364 0.0477297123 0.0463266527
0.4313365856 0.0553615625 0.0536027813
0.4898341523 0.0641398438 0.0608360000
0.5480545736 0.0728286562 0.0682761563
0.6050727012 0.0829882187 0.0756043858
0.6602980689 0.0949350625 0.0826527500
0.7120830777 0.1094896875 0.0898182500
0.7600271183 0.1281601278 0.0968989375
0.8030056505 0.1526632057 0.1046520193
0.8408141502 0.1846967078 0.1134058125
0.8730398211 0.2237749675 0.1250558043
0.9001858703 0.2691490750 0.1421180928
0.9224134136 0.3181579349 0.1677574487
0.9403638735 0.3664863132 0.2039186763
0.9543438537 0.4175638186 0.2486648344
0.9650349103 0.4708937276 0.2983284629
0.9732944041 0.5256736628 0.3477502640
0.9774880000 0.5809484079 0.3975566402
0.9774880000 0.6356127638 0.4497069427
0.0000000000 0.0000000000 0.0000000000
0.0000000000 0.0000000000 0.0000000000
0.0000000000 0.0000000000 0.0000000000
0.0000000000 0.0019543163 0.0000000000
0.0007443680 0.0033506061 0.0008119911
0.0000000000 0.0100295252 0.0000000000
0.0019079080 0.0227600741 0.0026909036
0.0139828197 0.0396539337 0.0042902555
0.0482370413 0.0493998651 0.0058896074
0.0878451562 0.0506994375 0.0105086449
0.1343095952 0.0454521240 0.0163249227
0.1883204552 0.0374427725 0.0229340797
0.2515551075 0.0373143406 0.0307614310
0.3166954853 0.0428783113 0.0393463244
0.3743452897 0.0497417203 0.0464630822
0.4323106655 0.0570422500 0.0536027813
0.4906489766 0.0652417500 0.0608360000
0.5488070959 0.0742033437 0.0682761563
0.6056351019 0.0842261250 0.0756043858
0.6607980597 0.0962851875 0.0826527500
0.7123609984 0.1108173750 0.0898182500
0.7602144904 0.1294791926 0.0968989375
0.8031334904 0.1541355158 0.1046520193
0.8409133721 0.1859026348 0.1134938125
0.8730754416 0.2248813296 0.1250558043
0.9001587870 0.2699708863 0.1421180928
0.9223835638 0.3187228838 0.1675810228
0.9403494073 0.3668662483 0.2039186763
0.9543020172 0.4177972624 0.2486648344
0.9650661774 0.4711486746 0.2983284629
0.9732944041 0.5258341180 0.3477383341
0.9774880000 0.5810971605 0.3976050477
0.9774880000 0.6356487217 0.4497069427
0.0000000000 0.0019796548 0.0000000000
0.0010705382 0.0025639213 0.0011677925
0.0000000000 0.0050010536 0.0000000000
0.0000000000 0.0099816861 0.0000000000
0.0018147882 0.0178330995 0.0019796548
0.0031879436 0.0292703779 0.0034775561
0.0051897387 0.0465366914 0.0057374155
0.0075462176 0.0663475000 0.0080819085
0.0332199228 0.0782269062 0.0095508912
0.0829866875 0.0843642813 0.0105086449
0.1331266241 0.0819690625 0.0163009728
0.1873201965 0.0726882187 0.0229340797
0.2473922081 0.0588260312 0.0301903197
0.3134367490 0.0541547188 0.0385687705
0.3735495426 0.0560602188 0.0463266527
0.4328303097 0.0613732500 0.0536027813
0.4913948097 0.0683085625 0.0611215000
0.5496426977 0.0768609375 0.0682761563
0.6064288583 0.0867558438 0.0757465689
0.6612494099 0.0983028750 0.0827983750
0.7127235104 0.1129351563 0.0898182500
0.7605232708 0.1317257901 0.0968989375
0.8032509279 0.1562659767 0.1046520193
0.8410054240 0.1876544074 0.1133288125
0.8731772012 0.2264720322 0.1250558043
0.9001860887 0.2710980513 0.1421180928
0.9224264729 0.3195034732 0.1675885616
0.9403566404 0.3675071182 0.2037287614
0.9543446325 0.4182542889 0.2485292329
0.9650287881 0.4714508397 0.2982055046
0.9732944041 0.5260632771 0.3477383341
0.9774880000 0.5812401472 0.3975403381
0.9774880000 0.6357096503 0.4497069427
0.0000000000 0.0100056663 0.0000000000
0.0012565712 0.0145775199 0.0013707259
0.0019545417 0.0214173741 0.0021321043
0.0031879140 0.0324015958 0.0034775239
0.0051664219 0.0459379384 0.0056357717
0.0066327561 0.0612300000 0.0072320274
0.0090071452 0.0766661250 0.0095269109
0.0113118691 0.0948045625 0.0116335624
0.0151873693 0.1128203125 0.0140746021
0.0580315937 0.1200720282 0.0148170191
0.1224219840 0.1242526471 0.0155591932
0.1819471130 0.1181856250 0.0223877677
0.2430236105 0.1046973484 0.0299668413
0.3068657241 0.0864209375 0.0377840657
0.3695876605 0.0762488750 0.0458446019
0.4318064982 0.0739484063 0.0536027813
0.4917690114 0.0763520625 0.0611215000
0.5504187874 0.0824659062 0.0688123750
0.6072338897 0.0913471875 0.0758887520
0.6620243424 0.1024359063 0.0831122500
0.7133614506 0.1166988125 0.0899541875
0.7609105691 0.1350832500 0.0968989375
0.8035856652 0.1594080326 0.1046520193
0.8411407152 0.1905352313 0.1132340313
0.8732087775 0.2287033079 0.1250558043
0.9002005977 0.2729543989 0.1419273720
0.9224504150 0.3207329941 0.1674799845
0.9403946143 0.3684657588 0.2036256043
0.9543465639 0.4188697829 0.2485118609
0.9650804209 0.4719552481 0.2982055046
0.9732944041 0.5263079259 0.3476418329
0.9774880000 0.5815115807 0.3975754047
0.9774880000 0.6358394983 0.4496546479
0.0037001762 0.0359614567 0.0040363232
0.0049337847 0.0449682855 0.0053820004
0.0063766545 0.0573982188 0.0069545034
0.0078614613 0.0712961250 0.0084973377
0.0103687724 0.0869150312 0.0107715172
0.0121756300 0.1005775938 0.0124230900
0.0139562858 0.1141690938 0.0140507128
0.0162608437 0.1286336487 0.0161572126
0.0180940359 0.1453611244 0.0179046154
0.0248963560 0.1629244667 0.0201069700
0.0885229370 0.1668672820 0.0208175514
0.1670235166 0.1688245873 0.0216170321
0.2342871691 0.1597275295 0.0291464124
0.3002123135 0.1424221351 0.0369932138
0.3620877312 0.1188622188 0.0451509442
0.4270025220 0.1051188438 0.0529593125
0.4901393000 0.0980907187 0.0608360000
0.5506464066 0.0967550938 0.0688123750
0.6081046289 0.1009684375 0.0758887520
0.6628866340 0.1100168750 0.0831122500
0.7140123521 0.1230873033 0.0900901250
0.7614503948 0.1408596983 0.0971653750
0.8039331027 0.1643752121 0.1046520193
0.8412680849 0.1947496815 0.1132340313
0.8732769386 0.2321025442 0.1248507485
0.9002709894 0.2757007744 0.1418384978
0.9224601784 0.3224298510 0.1673673722
0.9404145053 0.3697717100 0.2034407617
0.9543102724 0.4197694666 0.2483590123
0.9650608360 0.4727071234 0.2980815463
0.9732944041 0.5268283588 0.3475741884
0.9774880000 0.5818503555 0.3974610720
0.9774880000 0.6360464123 0.4496050742
0.0095310472 0.0831582500 0.0100057878
0.0111807276 0.0952469688 0.0115136914
0.0133541107 0.1080513125 0.0135002898
0.0150044220 0.1210936350 0.0150087702
0.0169682244 0.1347084355 0.0168037996
0.0186181372 0.1462313903 0.0183119157
0.0197444136 0.1567005264 0.0193413978
0.0213539716 0.1685608126 0.0208409757
0.0233697396 0.1822550219 0.0229091857
0.0256726366 0.1995271033 0.0253443498
0.0381075356 0.2158960452 0.0275810555
0.1246115909 0.2175801016 0.0275810555
0.2158316188 0.2172843890 0.0283760234
0.2898030373 0.2058789586 0.0361779551
0.3546345145 0.1845824095 0.0444509512
0.4180035875 0.1570871576 0.0519078437
0.4844330533 0.1401115931 0.0601718750
0.5485318484 0.1286316727 0.0682761563
0.6081295591 0.1230905025 0.0758887520
0.6635603727 0.1255421032 0.0831122500
0.7148640295 0.1350302428 0.0900901250
0.7620276324 0.1504225815 0.0971653750
0.8043166843 0.1723948071 0.1045351850
0.8415147151 0.2012414619 0.1132340313
0.8734310868 0.2372520631 0.1246651746
0.9003351719 0.2795880642 0.1416657390
0.9225112962 0.3251714928 0.1670976032
0.9404145053 0.3717419634 0.2032559191
0.9543093690 0.4211733539 0.2481285522
0.9650287881 0.4737584834 0.2978806883
0.9732944041 0.5275707682 0.3475130397
0.9774880000 0.5823635471 0.3973762575
0.9774880000 0.6362842276 0.4495370471
0.0183037827 0.1444172492 0.0180245774
0.0199534630 0.1556502459 0.0195324811
0.0215515531 0.1670274209 0.0210401756
0.0230789073 0.1782552989 0.0226110570
0.0241456820 0.1890973028 0.0237045947
0.0253575502 0.1973995132 0.0249468659
0.0264243557 0.2047933252 0.0260404351
0.0271754601 0.2131655297 0.0268103829
0.0288239918 0.2249954540 0.0285002725
0.0310056190 0.2391841065 0.0307366316
0.0333814315 0.2572161164 0.0331720478
0.0565080000 0.2724312070 0.0354105446
0.1650210775 0.2719383821 0.0354105446
0.2680975475 0.2695831612 0.0362023860
0.3435647561 0.2559540114 0.0437443092
0.4092421950 0.2312039084 0.0512712813
0.4746816166 0.2003724429 0.0593510000
0.5425564240 0.1803321923 0.0676682188
0.6057739091 0.1656158122 0.0758097614
0.6632417983 0.1568839248 0.0831122500
0.7153990268 0.1577349918 0.0900901250
0.7627224901 0.1672448437 0.0971653750
0.8048154367 0.1852884726 0.1045351850
0.8418132888 0.2113751654 0.1131386875
0.8735873815 0.2451337665 0.1246651746
0.9004121472 0.2853692707 0.1413950314
0.9225150275 0.3290975237 0.1668682182
0.9404257603 0.3745547237 0.2028797302
0.9543446325 0.4233744626 0.2479625809
0.9650287881 0.4752946167 0.2977607296
0.9732944041 0.5286145072 0.3473192566
0.9774880000 0.5831636836 0.3973382920
0.9774880000 0.6368005606 0.4494666743
0.0273452993 0.2121582448 0.0269844830
0.0284361744 0.2209944681 0.0281027256
0.0296242497 0.2299527948 0.0293206070
0.0307147251 0.2383002681 0.0304384399
0.0315635216 0.2452809861 0.0313085308
0.0323386647 0.2510301449 0.0321031205
0.0331147916 0.2564101450 0.0328987185
0.0340599277 0.2625364971 0.0338675659
0.0354433860 0.2708543981 0.0352847632
0.0371269826 0.2831398516 0.0369931197
0.0391866899 0.2978488681 0.0390751904
0.0416989459 0.3153256185 0.0416752541
0.0793665000 0.3278310368 0.0434356649
0.2097323364 0.3260514225 0.0434356649
0.3202116513 0.3225777151 0.0441694360
0.3966391734 0.3078060396 0.0509954375
0.4651126269 0.2811388398 0.0587520000
0.5326441073 0.2478061965 0.0668993437
0.5993076386 0.2252368421 0.0751045496
0.6604524420 0.2079407625 0.0830394375
0.7148442136 0.1970375223 0.0900901250
0.7629416701 0.1963848130 0.0971653750
0.8051777480 0.2068740289 0.1043658072
0.8421384136 0.2274261659 0.1128849688
0.8738236280 0.2570364142 0.1243489978
0.9005735864 0.2940517746 0.1410652927
0.9226135319 0.3350219814 0.1663594296
0.9404644824 0.3786624045 0.2024759393
0.9543607690 0.4264044737 0.2475245941
0.9650926654 0.4774424355 0.2973928545
0.9732944041 0.5301868299 0.3471713193
0.9774880000 0.5842366951 0.3972025452
0.9774880000 0.6375761525 0.4493634609
0.0365152074 0.2809880647 0.0367948422
0.0377078557 0.2875615884 0.0379262974
0.0387963179 0.2934017209 0.0386805799
0.0391390337 0.2981099185 0.0390270167
0.0398806847 0.3021601121 0.0397767203
0.0403730089 0.3055033527 0.0402743899
0.0407402043 0.3091333652 0.0406455722
0.0414977718 0.3139498428 0.0414113650
0.0426283987 0.3197724113 0.0425542677
0.0435040520 0.3276172494 0.0434394285
0.0456366089 0.3392006187 0.0455951398
0.0477072064 0.3528992654 0.0476882189
0.0511502187 0.3695192820 0.0508025937
0.1073335625 0.3807944723 0.0526051250
0.2577963481 0.3782666400 0.0519953125
0.3711584823 0.3737221569 0.0526471250
0.4511886330 0.3585849644 0.0593700313
0.5220411500 0.3316042098 0.0669340938
0.5891914820 0.2979193608 0.0746086875
0.6541172066 0.2743608531 0.0825941250
0.7120590244 0.2553056389 0.0900901250
0.7620935648 0.2427678158 0.0971653750
0.8052692884 0.2414481054 0.1045351850
0.8424263418 0.2526417751 0.1128849688
0.8739669500 0.2753677660 0.1241825955
0.9006439781 0.3070184924 0.1406015568
0.9226583067 0.3436837221 0.1658495148
0.9404976237 0.3849433156 0.2018323821
0.9543882446 0.4310294598 0.2469873746
0.9651118130 0.4806224154 0.2970725378
0.9732944041 0.5325284502 0.3468166072
0.9774880000 0.5858467136 0.3969887791
0.9774880000 0.6386747725 0.4492156781
0.0464362789 0.3454442109 0.0464034923
0.0471332522 0.3486816117 0.0471080330
0.0474451278 0.3513828764 0.0478055483
0.0478232755 0.3537083258 0.0478055483
0.0481762299 0.3557217811 0.0484965401
0.0485068454 0.3577488967 0.0484965401
0.0488566461 0.3600858759 0.0491836884
0.0493851772 0.3633394434 0.0498600522
0.0500317500 0.3679067465 0.0505290000
0.0513415313 0.3737635375 0.0513415313
0.0526298750 0.3817171542 0.0529438750
0.0549405313 0.3934411269 0.0549405313
0.0573835000 0.4077569778 0.0576795000
0.0627836331 0.4247839848 0.0606315625
0.1399481699 0.4354461402 0.0625471126
0.3070531750 0.4321358526 0.0619682650
0.4242236229 0.4264349025 0.0625471126
0.5070212947 0.4102245260 0.0682813125
0.5781453136 0.3820564254 0.0753803385
0.6443216100 0.3485677235 0.0824182500
0.7061132026 0.3247397723 0.0898182500
0.7594122811 0.3058152226 0.0973630625
0.8044554854 0.2928263999 0.1046520193
0.8423443718 0.2915348522 0.1127896250
0.8740963349 0.3032235190 0.1238752289
0.9008004250 0.3258572645 0.1401801374
0.9227858525 0.3565994877 0.1650626989
0.9405598535 0.3943215235 0.2010182344
0.9544334766 0.4376916712 0.2463041178
0.9650969447 0.4854409749 0.2965320522
0.9732944041 0.5360556521 0.3463700159
0.9774880000 0.5882526696 0.3966863646
0.9774880000 0.6403112628 0.4490293622
0.0567371875 0.4030305006 0.0567371875
0.0567371875 0.4046419371 0.0573515000
0.0573515000 0.4061600686 0.0573515000
0.0573515000 0.4076034127 0.0579602813
0.0579602813 0.4090672071 0.0579602813
0.0579602813 0.4104488259 0.0585655312
0.0584485312 0.4121692481 0.0585655312
0.0587589687 0.4145484131 0.0591657812
0.0596084687 0.4178800024 0.0597619688
0.0605044063 0.4226380048 0.0607706563
0.0619180188 0.4288475099 0.0619180188
0.0634157813 0.4373708855 0.0636175625
0.0661768125 0.4493571642 0.0661768125
0.0694028438 0.4641433224 0.0691628437
0.0777257500 0.4813510401 0.0729953437
0.1774525244 0.4912528611 0.0753125790
0.3567766188 0.4874540895 0.0743526563
0.4780335084 0.4811011422 0.0743689062
0.5627652685 0.4640663409 0.0789767813
0.6332521870 0.4343130127 0.0847065625
0.6966139281 0.3996802801 0.0906803750
0.7537901502 0.3756408091 0.0977500000
0.8019907257 0.3566912875 0.1050872187
0.8415944308 0.3438877496 0.1132046875
0.8740326536 0.3422898060 0.1237085784
0.9008812382 0.3532996442 0.1395642551
0.9228472313 0.3762074245 0.1642734744
0.9405933066 0.4082918684 0.1999445603
0.9544408283 0.4477779463 0.2451635026
0.9651660384 0.4925712609 0.2956347843
0.9733173205 0.5410604901 0.3457529392
0.9774880000 0.5915707888 0.3962126691
0.9774880000 0.6427526232 0.4486577313
0.0684470625 0.4601916132 0.0689826875
0.0689653750 0.4612407922 0.0689826875
0.0689826875 0.4622293380 0.0695141875
0.0692400313 0.4632325411 0.0695141875
0.0695141875 0.4642141968 0.0699748750
0.0695141875 0.4652416093 0.0700432500
0.0700432500 0.4664179702 0.0704670000
0.0704500625 0.4681121789 0.0705686250
0.0709565625 0.4704925758 0.0714769375
0.0719774063 0.4738577507 0.0719774063
0.0729876875 0.4786489454 0.0734968750
0.0746999375 0.4850623568 0.0748125937
0.0770613125 0.4937222500 0.0770613125
0.0801767813 0.5058475594 0.0799031250
0.0844597500 0.5208679231 0.0836245625
0.0978078125 0.5380609351 0.0883444584
