LOGcamera/LUTs/AppleLog2ToRec709.cube
TITLE "BaseLUT - Apple iPhone - Apple Log 2 to Rec709"
# Developed for converting Apple Log / Apple Log 2 to Rec.709. Version 1.1 - 09/27/2025 - Copyright 2025 Gamut, LLC.
LUT_3D_SIZE 5
0.0000000000 0.0000000000 0.0000000000
0.0016752708 0.0000000000 0.0000000000
0.4847701920 0.0619854424 0.0602475000
0.8711399581 0.2361850760 0.1128713083
0.9774880000 0.6578722820 0.3248080179
0.0000000000 0.0048745220 0.0000000000
0.0522657500 0.0632615000 0.0074464797
0.4918679568 0.0687765000 0.0611215000
0.8713247180 0.2415348526 0.1128713083
0.9774880000 0.6581732587 0.3246947123
0.0515125000 0.3756968485 0.0515125000
0.0566120000 0.4029403059 0.0566120000
0.4228120923 0.4480632306 0.0661890000
0.8729303636 0.3357014137 0.1137362608
0.9774880000 0.6637757295 0.3246380595
0.3412758050 0.7993615423 0.2434618504
0.3453129054 0.8015203282 0.2457263716
0.3711736000 0.8147483617 0.2602053199
0.8265452362 0.8424881374 0.2898949424
0.9774880000 0.7693441717 0.3346570065
0.8739951576 0.9694900000 0.6191806910
0.8740588164 0.9694900000 0.6193315596
0.8751255997 0.9697690000 0.6210550593
0.8859489115 0.9723532500 0.6380491462
0.9768800000 0.9774880000 0.6809190215
0.0000000000 0.0000000000 0.0000000000
0.0410353881 0.0044680758 0.0308447495
0.5124451994 0.0653845000 0.0663587500
0.8731302922 0.2363100114 0.1158727630
0.9774880000 0.6578370054 0.3260202361
0.0039096736 0.0362744317 0.0322687877
0.0894795491 0.0894795491 0.0894795491
0.5204238732 0.0715415000 0.0664997500
0.8733620503 0.2419306059 0.1158727630
0.9774880000 0.6582195436 0.3261044566
0.0553675000 0.3958811310 0.0585762500
0.0606697500 0.4234217410 0.0649490000
0.4397374619 0.4615542084 0.0695687500
0.8748597742 0.3356212085 0.1164647428
0.9774880000 0.6637527121 0.3259076893
0.3444514639 0.8010264556 0.2470808062
0.3484201408 0.8030982198 0.2494239504
0.3750629921 0.8165800854 0.2646356010
0.8278224260 0.8434230288 0.2911929770
0.9774880000 0.7693156147 0.3357184878
0.8740588164 0.9694900000 0.6194189835
0.8741145179 0.9695320000 0.6194564509
0.8751569318 0.9697690000 0.6210550593
0.8859956582 0.9723952500 0.6382287531
0.9769360000 0.9774880000 0.6810957671
0.0498781704 0.0590240000 0.3999742381
0.0546050000 0.0656357500 0.4312204385
0.4549005302 0.0717615000 0.4203076806
0.8843970225 0.2399383733 0.2731304593
0.9774880000 0.6577792119 0.3544272492
0.0505465000 0.0622446062 0.4055275670
0.0542842500 0.0696845000 0.4367363879
0.4617012835 0.0738080000 0.4286240658
0.8845627607 0.2450818864 0.2724403773
0.9774880000 0.6581387327 0.3543277629
0.0541040000 0.3830113639 0.3731821351
0.0570685000 0.3984401413 0.3897243078
0.4407052812 0.4407049054 0.4407064847
0.8862563895 0.3351642890 0.2586504881
0.9774880000 0.6632938664 0.3540762977
0.3629514693 0.8096941071 0.3071170315
0.3665451806 0.8115343139 0.3096411994
0.3927943906 0.8239656150 0.3273551178
0.8360065598 0.8494177601 0.3026158109
0.9774880000 0.7691540424 0.3576538033
0.8749510352 0.9697410000 0.6227475859
0.8749823673 0.9697270000 0.6227231072
0.8760789906 0.9699788128 0.6245585095
0.8869545896 0.9726177500 0.6420970366
0.9770460000 0.9774880000 0.6818450995
0.1060861305 0.2923996204 0.8161907847
0.1067377288 0.2951114155 0.8184060938
0.1947839289 0.3140460339 0.8339010896
0.8405796224 0.3296529336 0.8277043818
0.9774880000 0.6566861384 0.7110839395
0.1060861305 0.2934754481 0.8163319447
0.1068316074 0.2962074713 0.8185111734
0.1903086013 0.3151473339 0.8340842388
0.8408493894 0.3300394227 0.8280578994
0.9774880000 0.6570346509 0.7110741476
0.1083033818 0.3246691784 0.8183360408
0.1088505024 0.3276259960 0.8204811645
0.1423844358 0.3454782161 0.8359411819
0.8437217468 0.3357553017 0.8324392157
0.9774880000 0.6626503817 0.7103972489
0.4009597447 0.7918633223 0.7838196138
0.4031732110 0.7930035913 0.7850900410
0.4185930067 0.8006506123 0.7936312710
0.8338167069 0.8338175388 0.8338169744
0.9774880000 0.7653900331 0.6929903828
0.8825274062 0.9714697500 0.7010116717
0.8825586540 0.9714697500 0.7010011733
0.8834513402 0.9716925000 0.7027904032
0.8931298980 0.9740347183 0.7219278759
0.9774880000 0.9774880000 0.6952660392
0.4514033568 0.6900615048 0.9748040000
0.4515907053 0.6901485131 0.9748460000
0.4540871876 0.6920631958 0.9750815000
0.6198422392 0.7121894675 0.9774880000
0.9766870000 0.7283458592 0.9774880000
0.4514782962 0.6901485131 0.9748040000
0.4516281750 0.6902687746 0.9748460000
0.4541985975 0.6921717062 0.9750815000
0.6196422576 0.7122311521 0.9774880000
0.9766870000 0.7283458592 0.9774880000
0.4525614208 0.6913896315 0.9748600000
0.4525988905 0.6914766399 0.9748600000
0.4551997883 0.6933643200 0.9751090000
0.6164986871 0.7133261834 0.9774880000
0.9767420000 0.7286503813 0.9774880000
0.4882173768 0.7316032771 0.9751090000
0.4882685391 0.7316638299 0.9751090000
0.4908968765 0.7337106143 0.9753720000
0.5731194137 0.7516555087 0.9774880000
0.9772488720 0.7346804598 0.9774880000
0.8815386625 0.9687070000 0.9668603029
0.8815704823 0.9686790000 0.9668603029
0.8820449539 0.9688190000 0.9670000000
0.8875050502 0.9703382612 0.9687770000
0.9773664027 0.9773664027 0.9773664027
