LOGcamera/LUTs/AppleLogToRec709.cube
TITLE "BaseLUT - Apple iPhone - Apple Log to Rec709"
# Developed for converting Apple Log / BT.2020 to Rec.709. Version 1.2 - 09/27/2025 - Copyright 2025 Gamut, LLC.
LUT_3D_SIZE 5
0.0000000000 0.0000000000 0.0000000000
0.0024202292 0.0000000000 0.0000000000
0.4855569749 0.0617035000 0.0605355000
0.8729791262 0.2205429536 0.1253702439
0.9774880000 0.6354189906 0.4496308775
0.0000000000 0.0000000000 0.0000000000
0.0482370413 0.0493998651 0.0058896074
0.4906489766 0.0652417500 0.0608360000
0.8730754416 0.2248813296 0.1250558043
0.9774880000 0.6356487217 0.4497069427
0.0464362789 0.3454442109 0.0464034923
0.0500317500 0.3679067465 0.0505290000
0.4242236229 0.4264349025 0.0625471126
0.8740963349 0.3032235190 0.1238752289
0.9774880000 0.6403112628 0.4490293622
0.3030329108 0.7779445498 0.2301761482
0.3044064648 0.7786982223 0.2310438900
0.3231766396 0.7893374547 0.2426069944
0.8267666680 0.8292054859 0.2742504108
0.9774880000 0.7366203689 0.4385243215
0.8552180432 0.9649439003 0.6083577140
0.8551933425 0.9649859154 0.6083324598
0.8557120583 0.9650839505 0.6091518459
0.8645995887 0.9672306662 0.6236740082
0.9769910000 0.9771840000 0.6676601869
0.0000000000 0.0000000000 0.0000000000
0.0664325000 0.0080819085 0.0454347489
0.5132574178 0.0656685000 0.0714145000
0.8754193649 0.2244929062 0.1369791940
0.9774880000 0.6354549485 0.4513368390
0.0018613333 0.0205368410 0.0178573530
0.0890446854 0.0890446854 0.0890446854
0.5204838728 0.0714097500 0.0714145000
0.8755151825 0.2287472933 0.1367652659
0.9774880000 0.6356974147 0.4512993069
0.0510220000 0.3720836962 0.0602035000
0.0544300000 0.3915465332 0.0667322500
0.4409735517 0.4425841969 0.0690355000
0.8764457335 0.3074659227 0.1338625940
0.9774880000 0.6404431084 0.4506254796
0.3073675875 0.7802784150 0.2380756848
0.3087178354 0.7810572849 0.2389551259
0.3269354698 0.7913988902 0.2510049296
0.8280415487 0.8303964793 0.2768208791
0.9774880000 0.7367705454 0.4401111200
0.8552509776 0.9649999204 0.6086147567
0.8553250798 0.9649999204 0.6087677821
0.8557774280 0.9651119606 0.6094711490
0.8645756365 0.9672447763 0.6239343015
0.9769910000 0.9771840000 0.6677060948
0.0547560000 0.0798030000 0.4391879788
0.1121137500 0.0803055000 0.4471625129
0.4810251785 0.0772650000 0.4352205601
0.8839221121 0.2437615189 0.3477503264
0.9774880000 0.6383890134 0.4857929243
0.0542842500 0.1155625000 0.4370066749
0.0718962500 0.1174372500 0.4501856028
0.4849957663 0.0803730000 0.4415722236
0.8841271481 0.2485666484 0.3475439576
0.9774880000 0.6387141327 0.4857244506
0.0559920000 0.3944470005 0.3821824873
0.0578370000 0.4042509788 0.3930682998
0.4408215207 0.4408214820 0.4408212094
0.8856158441 0.3317070991 0.3427367617
0.9774880000 0.6436099008 0.4849752389
0.3298305783 0.7907402687 0.3482762423
0.3309434743 0.7913786825 0.3493538077
0.3475286829 0.8002271163 0.3635153106
0.8354406999 0.8372323983 0.3297770053
0.9774880000 0.7393742712 0.4721856591
0.8565823232 0.9652530111 0.6162600267
0.8565823232 0.9652530111 0.6162600267
0.8570908094 0.9654210714 0.6171661772
0.8657500143 0.9674987576 0.6318794539
0.9771430000 0.9772856503 0.6697659599
0.2119194888 0.4196749558 0.8388371127
0.2306109102 0.4196311284 0.8391835720
0.4635943243 0.4160370266 0.8409021302
0.8557120583 0.3490462732 0.8380485243
0.9774880000 0.6605322472 0.7838183564
0.2070173340 0.4243837776 0.8388036408
0.2250937786 0.4244045643 0.8391408578
0.4598524971 0.4207819121 0.8409528377
0.8558268295 0.3496871801 0.8382938185
0.9774880000 0.6608436220 0.7837905297
0.1723931204 0.4898550787 0.8366462007
0.1793294345 0.4902258426 0.8371630171
0.3945675742 0.4902582564 0.8410040447
0.8571983450 0.3652537903 0.8412196139
0.9774880000 0.6656753082 0.7836137923
0.4160179344 0.8001687449 0.7902322941
0.4166584355 0.8005021885 0.7906176067
0.4272385370 0.8056694367 0.7965330781
0.8339167836 0.8339159939 0.8339162362
0.9774880000 0.7608609215 0.7784081869
0.8665888014 0.9674282072 0.7479459756
0.8666368825 0.9674917025 0.7480337604
0.8670033731 0.9675551979 0.7488085675
0.8741102721 0.9692892247 0.7623785848
0.9774880000 0.9774880000 0.7408629180
0.6847217366 0.8215600931 0.9774880000
0.6854023314 0.8215338598 0.9774880000
0.6951807741 0.8215600931 0.9774880000
0.8476115867 0.8189774839 0.9774880000
0.9774880000 0.7498811294 0.9774880000
0.6845902015 0.8217164937 0.9774880000
0.6853036800 0.8217164937 0.9774880000
0.6950517302 0.8217339826 0.9774880000
0.8475031283 0.8191611172 0.9774880000
0.9774880000 0.7498811294 0.9774880000
0.6828304206 0.8238986074 0.9774880000
0.6834796263 0.8238641293 0.9774880000
0.6931315162 0.8238126620 0.9774880000
0.8462306832 0.8218551556 0.9774880000
0.9774880000 0.7504478521 0.9774880000
0.6767873732 0.8650355664 0.9774880000
0.6770673230 0.8650924898 0.9774880000
0.6812300136 0.8652300547 0.9774880000
0.8178862491 0.8653671203 0.9774880000
0.9774880000 0.7677510280 0.9774880000
0.8866292862 0.9701566301 0.9680031569
0.8865973196 0.9701566301 0.9680592898
0.8867861225 0.9702136616 0.9680592898
0.8905349592 0.9712209397 0.9693410733
0.9773664027 0.9773664027 0.9773664027
